X:1
T:Miss Balfour’s Strathspey
T:Miss Balfour’s Strathspey
T:John Pringle
C:John Pringle
L:1/8
M:4/4
K:G
V:1 treble 
V:1
 G | (D<G)G>F (E<A)A>F | (G<B)B>A{A} G>F{F} ED | DGGF EccB | (Ae)dF G2 G :| B | Ggf>e{e} d>BGF | %7
 (Ecc)A/G/ (G/F/).A/.F/ DE/F/ | Ggdg e>cAG | (F/A/d) (d/^c/d/e/) (d/e/d/=c/){c} (B/A/B/G/) | %10
 (D<G)GF (EA)AF | .G/.A/.B/.c/ .d/.e/.f/.g/ .a/.b/.c .d!fermata!e | DGGF EccB | %13
 (A/B/c/).e/ dF{F} G2 G || %14

